_site/assets/img/logos/rapha.svg

<?xml version="1.0" encoding="UTF-8" standalone="no"?>
<svg width="102px" height="47px" viewBox="0 0 102 47" version="1.1" xmlns="http://www.w3.org/2000/svg" xmlns:xlink="http://www.w3.org/1999/xlink">
    <!-- Generator: sketchtool 41.2 (35397) - http://www.bohemiancoding.com/sketch -->
    <title>181EA3EC-39E1-42D4-836B-C22DA20581CD</title>
    <desc>Created with sketchtool.</desc>
    <defs>
        <polygon id="path-1" points="4.77886364 4.90861364 4.77886364 0.160431818 0.0416590909 0.160431818 0.0416590909 4.90861364 4.77886364 4.90861364"></polygon>
        <polygon id="path-3" points="93.8814049 0.153129032 4.14662209e-05 0.153129032 4.14662209e-05 46.9998865 93.8814049 46.9998865 93.8814049 0.153129032"></polygon>
    </defs>
    <g id="Page-1" stroke="none" stroke-width="1" fill="none" fill-rule="evenodd">
        <g id="01_Rapha_Home_A" transform="translate(-589.000000, -50.000000)">
            <g id="Group-17" transform="translate(0.000000, 30.000000)">
                <g id="Logo" transform="translate(589.000000, 20.000000)">
                    <g id="Group-3" transform="translate(97.000000, 26.000000)">
                        <mask id="mask-2" fill="white">
                            <use xlink:href="#path-1"></use>
                        </mask>
                        <g id="Clip-2"></g>
                        <path d="M2.41029545,0.160431818 C1.10325,0.160431818 0.0416590909,1.22656818 0.0416590909,2.53997727 C0.0416590909,3.84952273 1.10325,4.90861364 2.41029545,4.90861364 C3.71643182,4.90861364 4.77893182,3.84952273 4.77893182,2.53997727 C4.77893182,1.22656818 3.71643182,0.160431818 2.41029545,0.160431818" id="Fill-1" fill="#FEFEFE" mask="url(#mask-2)"></path>
                    </g>
                    <g id="Group-6">
                        <mask id="mask-4" fill="white">
                            <use xlink:href="#path-3"></use>
                        </mask>
                        <g id="Clip-5"></g>
                        <path d="M93.648113,27.2648949 C93.0281863,26.6294203 92.2645707,26.8148212 91.4846073,27.35413 C90.9410421,27.7429088 90.0309414,27.7834111 90.5422412,25.6305078 C91.0124563,23.5895816 92.7633945,20.268176 93.010978,19.6790516 C93.357724,18.8391161 92.9083739,17.8148627 91.4235181,17.6914065 C90.7773487,17.6344433 90.1541954,17.7806415 89.5355593,18.3019733 C88.8444334,17.5216 87.7846211,16.7908258 86.0958476,16.7908258 C83.3470467,16.7908258 79.5618796,18.9069088 77.3476096,22.3138673 C76.1185112,24.1436184 74.4456554,26.1514065 72.5682366,27.3983143 C71.9850924,27.7834111 71.3204243,27.9932866 70.9035547,27.8438396 C70.0418522,27.5282682 70.2883602,26.2674986 72.1305021,24.1563972 C75.0827904,20.7544203 75.9272847,18.2058074 74.2120535,16.692494 C73.0461954,15.662176 71.1188728,15.5558304 69.1653076,16.4774203 C67.0973076,17.4570562 65.9269323,18.5259272 64.8430284,19.6366 C67.5582732,13.98707 70.9392618,7.38606083 73.1845066,3.66656313 C74.2374357,1.94402396 74.2374357,0.459300461 72.7594632,0.196576959 C71.4632526,-0.0301926267 70.1571474,0.599217512 69.1018522,2.81818065 C66.6896874,7.9143235 64.6978339,12.4397521 62.3340673,17.5216 L62.3340673,17.5116369 C60.8031794,20.6045401 57.9864059,24.9369871 54.2874952,27.3983143 C53.7045661,27.7834111 53.0422641,27.9932866 52.6286211,27.8438396 C51.7613259,27.5282682 52.0089094,26.2674986 53.8497606,24.1563972 C56.7986073,20.7544203 57.6467584,18.2058074 55.9323876,16.692494 C54.763303,15.662176 52.8381314,15.5558304 50.8824151,16.4774203 C48.3179574,17.6914065 47.1277927,19.0375124 45.7904975,20.4317014 C46.9172069,18.6963834 46.7902961,17.1037982 45.7156416,16.761153 C44.3032755,16.3056645 43.5603098,16.8627336 42.2159162,20.7072037 C41.5305982,22.5835217 39.6723236,26.1535724 37.0216096,27.35413 C36.4191062,27.6374295 35.3040124,27.7834111 35.8097195,25.6305078 C36.2878934,23.5895816 38.0285066,20.268176 38.2842641,19.6790516 C38.6206851,18.8391161 38.1771428,17.8148627 36.6968041,17.6914065 C36.0517103,17.6344433 35.4249002,17.7806415 34.804113,18.3019733 C34.1106211,17.5216 33.0542503,16.7908258 31.3585936,16.7908258 C27.7805707,16.7908258 22.416978,20.3940147 21.0945249,25.7626276 C20.4631977,26.6699226 19.2743236,27.6417613 17.7421451,27.6859456 C15.0073259,27.7695493 13.5076279,25.3266323 12.8681268,22.4888719 C19.0220078,21.27207 24.8061268,17.8148627 25.93047,12.3771576 C27.0064151,7.22989954 23.4858247,2.77464608 17.1893304,2.90373364 C8.51143112,3.08328664 2.66170572,9.38236959 1.2572984,12.0570378 C0.279440275,13.9210101 1.17340824,15.4230608 2.42315652,15.3684802 C3.31260732,15.3251622 4.98288192,14.7330055 5.50816339,12.9036876 C6.34921602,9.98817143 9.63469886,6.64359078 15.2215684,6.17012535 C19.4449002,5.81296866 21.8422229,8.51102857 21.453962,12.0072221 C20.9723465,16.2653788 16.8172023,18.7128442 12.5306302,19.807706 L12.5306302,19.5408673 C12.5226714,18.2220516 12.4084517,17.3331668 11.5250238,17.0487843 C11.529541,16.5824664 11.3361634,16.218812 10.8764883,16.0089364 C10.1462137,15.6747382 9.1681405,15.7154571 8.35139451,16.9692959 C5.3642595,21.6017198 3.90693684,23.7492083 1.0189643,27.5815493 C-0.31381373,29.3411253 -0.350596339,31.1728258 0.976373913,31.5544571 C2.3564746,31.9510332 3.63268055,31.3816184 4.73185675,29.6068811 C6.19262105,27.2475677 7.42279497,24.9486829 8.49185675,22.9720839 C8.78783844,22.9660194 9.08618627,22.955623 9.38238307,22.9376461 C9.56780183,26.8078903 11.5078156,32.1284203 16.7860124,31.2689917 C18.7249506,30.9477889 20.0529963,29.9176876 21.0945249,28.9456323 C21.8512572,31.1065493 24.399367,31.6135862 26.9522092,30.4071806 C29.5177423,29.1882129 30.7018842,27.8438396 32.0335867,26.4598304 C30.4852755,30.4210424 33.4597195,33.3512866 38.1057286,29.5674618 C38.3014723,29.4002544 38.4916233,29.242577 38.6781176,29.0939963 C36.3489826,33.9891438 33.5334998,39.4409272 31.7905204,43.1734203 C30.5994952,45.726365 31.1512343,46.871259 32.6371657,46.9884341 C34.1164288,47.1056092 34.9850146,46.3343327 35.8718842,44.1803465 C37.0861405,41.2908212 39.4210833,34.9947705 43.1075181,27.7695493 C46.6278934,20.8679134 51.1426897,19.1772129 52.0342915,19.7652544 C52.9788087,20.3918488 51.6505478,21.9170747 49.6427767,24.4821484 C47.4482961,27.2835217 47.5493945,29.5997336 48.6104975,30.5672406 C49.9467172,31.775812 52.3522137,31.9984664 55.333541,29.5674618 C56.2376188,28.8249917 56.9035776,28.1964479 57.439184,27.6281161 C56.5015501,29.5035677 56.1330787,30.8968903 57.4000352,31.4093419 C58.2511977,31.7467889 59.3768316,31.5044249 59.9505112,30.2287106 C60.7685478,28.3565078 62.6646805,25.09813 64.7475227,22.8291346 C67.3889872,19.9426415 69.7755547,19.4132959 70.3182595,19.7652544 C71.2617011,20.3918488 69.9278476,21.9170747 67.9153442,24.4821484 C65.7243053,27.2835217 65.830351,29.5997336 66.8843556,30.5672406 C68.2298247,31.775812 70.6247812,31.9984664 73.6095501,29.5674618 C74.4493121,28.8819548 75.0864471,28.2822175 75.6046302,27.7429088 C75.7614403,30.8968903 78.7092114,31.8061346 81.6789231,30.4071806 C84.2420902,29.1882129 85.4298888,27.8438396 86.7742824,26.4598304 C85.3999895,30.6287521 89.2141954,33.1156369 92.987962,29.6670931 C93.9406531,28.7948857 94.0802549,27.7160516 93.648113,27.2648949 M27.81047,26.792729 C26.2806577,27.7578535 24.2784792,27.3796876 25.1965387,24.5867613 C26.0524334,21.9723051 28.3219849,20.4683051 29.7089689,20.4683051 C31.177692,20.4683051 31.8896828,21.3829641 32.3065524,22.1522912 C31.3585936,23.6824986 29.9866668,25.4264802 27.81047,26.792729 M82.5406256,26.792729 C81.0131794,27.7578535 79.0122915,27.3796876 79.9282,24.5867613 C80.790978,21.9723051 82.948676,20.4683051 84.3354449,20.4683051 C85.8020169,20.4683051 86.6049963,21.3829641 87.0438064,22.1618212 C86.0911153,23.6824986 84.7133808,25.4264802 82.5406256,26.792729" id="Fill-4" fill="#FEFEFE" mask="url(#mask-4)"></path>
                    </g>
                </g>
            </g>
        </g>
    </g>
</svg>

<svg width="102" height="47" viewBox="0 0 102 47" xmlns="http://www.w3.org/2000/svg" xmlns:xlink="http://www.w3.org/1999/xlink"><title>181EA3EC-39E1-42D4-836B-C22DA20581CD</title><defs><path id="a" d="M4.779 4.909V.16H.042v4.75h4.737z"/><path id="c" d="M93.881.153H0V47h93.881V.153z"/></defs><g fill="none" fill-rule="evenodd"><g transform="translate(97 26)"><mask id="b" fill="#fff"><use xlink:href="#a"/></mask><path d="M2.41.16a2.375 2.375 0 0 0 0 4.749A2.369 2.369 0 0 0 4.78 2.54 2.376 2.376 0 0 0 2.41.16" fill="#FEFEFE" mask="url(#b)"/></g><mask id="d" fill="#fff"><use xlink:href="#c"/></mask><path d="M93.648 27.265c-.62-.636-1.383-.45-2.163.09-.544.388-1.454.428-.943-1.724.47-2.041 2.221-5.363 2.469-5.952.347-.84-.103-1.864-1.587-1.988-.647-.057-1.27.09-1.888.611-.692-.78-1.751-1.511-3.44-1.511-2.749 0-6.534 2.116-8.748 5.523-1.23 1.83-2.902 3.837-4.78 5.084-.583.385-1.248.595-1.664.446-.862-.316-.616-1.577 1.227-3.688 2.952-3.402 3.796-5.95 2.081-7.464-1.166-1.03-3.093-1.136-5.047-.215-2.068.98-3.238 2.049-4.322 3.16 2.715-5.65 6.096-12.25 8.342-15.97 1.052-1.723 1.052-3.208-.426-3.47-1.296-.227-2.602.402-3.657 2.621-2.412 5.096-4.404 9.622-6.768 14.704v-.01c-1.53 3.093-4.348 7.425-8.047 9.886-.582.385-1.245.595-1.658.446-.868-.316-.62-1.577 1.22-3.688 2.95-3.402 3.798-5.95 2.083-7.464-1.169-1.03-3.094-1.136-5.05-.215-2.564 1.214-3.754 2.56-5.092 3.955 1.127-1.736 1-3.328-.074-3.67-1.413-.456-2.156.1-3.5 3.945-.685 1.877-2.544 5.447-5.194 6.647-.603.283-1.718.43-1.212-1.723.478-2.041 2.219-5.363 2.474-5.952.337-.84-.107-1.864-1.587-1.988-.645-.057-1.272.09-1.893.611-.693-.78-1.75-1.511-3.445-1.511-3.578 0-8.942 3.603-10.264 8.972-.632.907-1.82 1.879-3.353 1.923-2.735.084-4.234-2.36-4.874-5.197 6.154-1.217 11.938-4.674 13.062-10.112 1.076-5.147-2.444-9.602-8.74-9.473-8.679.18-14.528 6.478-15.933 9.153-.978 1.864-.084 3.366 1.166 3.311.89-.043 2.56-.635 3.085-2.464.841-2.916 4.127-6.26 9.714-6.734 4.223-.357 6.62 2.341 6.232 5.837-.482 4.258-4.637 6.706-8.923 7.8v-.266c-.008-1.319-.123-2.208-1.006-2.492.005-.467-.189-.83-.649-1.04-.73-.334-1.708-.294-2.525.96-2.987 4.633-4.444 6.78-7.332 10.613-1.333 1.76-1.37 3.59-.043 3.972 1.38.397 2.657-.172 3.756-1.947 1.46-2.36 2.69-4.658 3.76-6.635.296-.006.594-.016.89-.034.186 3.87 2.126 9.19 7.404 8.331 1.939-.321 3.267-1.351 4.309-2.323.756 2.16 3.304 2.668 5.857 1.461 2.566-1.219 3.75-2.563 5.082-3.947-1.549 3.961 1.426 6.891 6.072 3.107.195-.167.386-.324.572-.473-2.329 4.895-5.145 10.347-6.887 14.08-1.192 2.552-.64 3.697.846 3.814 1.48.118 2.348-.654 3.235-2.808 1.214-2.89 3.55-9.185 7.236-16.41 3.52-6.902 8.035-8.593 8.926-8.005.945.627-.383 2.152-2.391 4.717-2.195 2.802-2.094 5.118-1.033 6.085 1.337 1.209 3.742 1.431 6.724-1a22.265 22.265 0 0 0 2.105-1.939c-.937 1.876-1.306 3.269-.039 3.781.851.338 1.977.095 2.55-1.18.819-1.872 2.715-5.13 4.798-7.4 2.641-2.886 5.028-3.416 5.57-3.064.944.627-.39 2.152-2.403 4.717-2.19 2.802-2.085 5.118-1.03 6.085 1.345 1.209 3.74 1.431 6.725-1a22.152 22.152 0 0 0 1.995-1.824c.156 3.154 3.104 4.063 6.074 2.664 2.563-1.219 3.75-2.563 5.095-3.947-1.374 4.169 2.44 6.656 6.214 3.207.953-.872 1.092-1.95.66-2.402m-65.838-.472c-1.53.965-3.532.587-2.613-2.206.855-2.615 3.125-4.119 4.512-4.119 1.469 0 2.18.915 2.598 1.684-.948 1.53-2.32 3.274-4.497 4.64m54.73 0c-1.527.966-3.528.588-2.612-2.205.863-2.615 3.02-4.119 4.407-4.119 1.467 0 2.27.915 2.709 1.694-.953 1.52-2.33 3.264-4.503 4.63" fill="#FEFEFE" mask="url(#d)"/></g></svg>
